X: 204
T:Irish Trott. HA.203
M:6/4
L:1/4
Q:150
C:"The last to be playd first."
S:Henry Atkinson's original MS,Hartburn,N'umberland,1694.
O:England
A:Hartburn,Northumberland
H:1/4
Z:vmp.Neil Brookes, Jan.2004
K:C
ece ece|ece ece|fdf e(d/2c/2)(B/2A/2)|"v"d2d "="f2d:|!
|:efg gag|efg gag|fdf e(d/2c/2)(B/2A/2)|"v"d2d "="f2d:|]
